icons/core/beaker.svg

<svg width="32" height="32" viewBox="0 0 32 32" fill="none" xmlns="http://www.w3.org/2000/svg">
<path fill-rule="evenodd" clip-rule="evenodd" d="M22.0001 4.00002H24V2.00002H8.00003V4.00002H10.0001V11.0703C10.0001 11.422 9.90736 11.7675 9.73125 12.0719L3.98922 21.9969C2.44645 24.6636 4.37075 28 7.45153 28H24.5486C27.6293 28 29.5536 24.6636 28.0109 21.9969L22.2689 12.0719C22.0928 11.7675 22.0001 11.422 22.0001 11.0703V4.00002ZM20.0001 4.00002H12.0001V11.0703C12.0001 11.7737 11.8146 12.4646 11.4624 13.0734L9.76926 16H22.2309L20.5378 13.0734C20.1856 12.4646 20.0001 11.7737 20.0001 11.0703V4.00002ZM5.72038 22.9985L8.61218 18H23.388L26.2797 22.9985C27.0511 24.3318 26.0889 26 24.5486 26H7.45153C5.91114 26 4.94899 24.3318 5.72038 22.9985Z" fill="black"/>
</svg>

<svg width="32" height="32" viewBox="0 0 32 32" xmlns="http://www.w3.org/2000/svg">
    <path fill-rule="evenodd" d="M22 4h2V2H8v2h2v7.07a2 2 0 01-.269 1.002L3.99 21.997C2.446 24.664 4.371 28 7.452 28h17.097c3.08 0 5.005-3.336 3.462-6.003l-5.742-9.925A2 2 0 0122 11.07V4zm-2 0h-8v7.07a4 4 0 01-.538 2.003L9.77 16h12.462l-1.693-2.927A4 4 0 0120 11.07V4zM5.72 22.998L8.612 18h14.776l2.892 4.998C27.05 24.332 26.089 26 24.549 26H7.452c-1.54 0-2.503-1.668-1.732-3.002z"/>
</svg>
